svgs/1F633.svg

<svg xmlns="http://www.w3.org/2000/svg" xmlns:xlink="http://www.w3.org/1999/xlink" preserveAspectRatio="none" viewBox="0 0 72 72"><defs><radialGradient id="a" cx="0" cy="0" r="12.012" fx="0" fy="0" gradientTransform="translate(13.2 41.7)" gradientUnits="userSpaceOnUse" spreadMethod="pad"><stop offset="0%" stop-color="#ED6C30"/><stop offset="100%" stop-color="#FCC21B"/></radialGradient><path id="b" fill="#FCC21B" d="M127.55 92.35q0-27-8.5-47.05-15.6-36.65-55.3-36.65Q24.1 8.65 8.5 45.3 0 65.35 0 92.35q0 10.4 18.7 17.7 18.65 7.35 45.05 7.35 26.45 0 45.1-7.35 18.7-7.3 18.7-17.7z"/><path id="c" fill="url(#a)" d="M2.2 36.6q-2.1 4.5-.4 9.2 1.75 4.6 6.3 6.75 4.55 2.1 9.25.4 4.75-1.75 6.85-6.2 2.15-4.5.4-9.2-1.7-4.65-6.25-6.75-4.6-2.1-9.3-.4-4.7 1.7-6.85 6.2z"/><path id="d" fill="url(#a)" d="M2.2 36.6q-2.1 4.5-.4 9.2 1.75 4.6 6.3 6.75 4.55 2.1 9.25.4 4.75-1.75 6.85-6.2 2.15-4.5.4-9.2-1.7-4.65-6.25-6.75-4.6-2.1-9.3-.4-4.7 1.7-6.85 6.2z"/><path id="e" fill="#FFF" d="M97.7 42.4q-3.95-5.35-10.35-6.05-6.4-.7-11.45 3.6-5.05 4.35-5.8 11.2t3.2 12.15q4 5.35 10.35 6.05 6.4.7 11.45-3.6 5.05-4.35 5.8-11.2.8-6.8-3.2-12.15z"/><path id="f" fill="#2F2F2F" d="M90.7 48.45Q89 46.6 86.5 46.5q-2.5-.2-4.4 1.45-1.9 1.65-2.05 4.15-.2 2.45 1.5 4.35 1.65 1.85 4.15 2 2.5.15 4.4-1.5 1.9-1.65 2.1-4.15.15-2.5-1.5-4.35z"/><path id="g" fill="#FFF" d="M97.7 42.4q-3.95-5.35-10.35-6.05-6.4-.7-11.45 3.6-5.05 4.35-5.8 11.2t3.2 12.15q4 5.35 10.35 6.05 6.4.7 11.45-3.6 5.05-4.35 5.8-11.2.8-6.8-3.2-12.15z"/><path id="h" fill="#2F2F2F" d="M90.7 48.45Q89 46.6 86.5 46.5q-2.5-.2-4.4 1.45-1.9 1.65-2.05 4.15-.2 2.45 1.5 4.35 1.65 1.85 4.15 2 2.5.15 4.4-1.5 1.9-1.65 2.1-4.15.15-2.5-1.5-4.35z"/><path id="i" fill="none" stroke="#2F2F2F" stroke-linecap="round" stroke-linejoin="round" stroke-width="3" d="M30 51.85h12"/><path id="j" fill="none" stroke="#2F2F2F" stroke-linecap="round" stroke-linejoin="round" stroke-width="3" d="M47.05 17.5q6-.45 9.9 4.4M24.5 17.45q-6-.45-9.95 4.45"/></defs><use transform="scale(.5625)" xlink:href="#b"/><use transform="translate(42.8 1.5)" xlink:href="#c"/><use transform="translate(2.75 1.5)" xlink:href="#d"/><use transform="matrix(.56247 0 0 .56247 -25.1 3)" xlink:href="#e"/><use transform="matrix(.64214 0 0 .64214 -32.3 -1.15)" xlink:href="#f"/><use transform="matrix(-.56247 0 0 .56247 97.1 3)" xlink:href="#g"/><use transform="matrix(-.64214 0 0 .64214 104.3 -1.15)" xlink:href="#h"/><g><use xlink:href="#i"/><use transform="translate(.25)" xlink:href="#j"/></g></svg>

<svg xmlns="http://www.w3.org/2000/svg" version="1.1" xmlns:xlink="http://www.w3.org/1999/xlink" preserveAspectRatio="none" x="0px" y="0px" width="72px" height="72px" viewBox="0 0 72 72">
<defs>
<radialGradient id="Gradient_1" gradientUnits="userSpaceOnUse" cx="0" cy="0" r="12.0125" fx="0" fy="0" gradientTransform="matrix( 1, 0, 0, 1, 13.2,41.7) " spreadMethod="pad">
<stop  offset="0%" stop-color="#ED6C30"/>

<stop  offset="100%" stop-color="#FCC21B"/>
</radialGradient>

<g id="Layer1_0_FILL">
<path fill="#FCC21B" stroke="none" d="
M 127.55 92.35
Q 127.55 65.35 119.05 45.3 103.45 8.65 63.75 8.65 24.1 8.65 8.5 45.3 0 65.35 0 92.35 0 102.75 18.7 110.05 37.35 117.4 63.75 117.4 90.2 117.4 108.85 110.05 127.55 102.75 127.55 92.35 Z"/>
</g>

<g id="Layer1_1_MEMBER_0_FILL">
<path fill="url(#Gradient_1)" stroke="none" d="
M 2.2 36.6
Q 0.1 41.1 1.8 45.8 3.55 50.4 8.1 52.55 12.65 54.65 17.35 52.95 22.1 51.2 24.2 46.75 26.35 42.25 24.6 37.55 22.9 32.9 18.35 30.8 13.75 28.7 9.05 30.4 4.35 32.1 2.2 36.6 Z"/>
</g>

<g id="Layer1_1_MEMBER_1_FILL">
<path fill="url(#Gradient_1)" stroke="none" d="
M 2.2 36.6
Q 0.1 41.1 1.8 45.8 3.55 50.4 8.1 52.55 12.65 54.65 17.35 52.95 22.1 51.2 24.2 46.75 26.35 42.25 24.6 37.55 22.9 32.9 18.35 30.8 13.75 28.7 9.05 30.4 4.35 32.1 2.2 36.6 Z"/>
</g>

<g id="Layer1_2_MEMBER_0_MEMBER_0_FILL">
<path fill="#FFFFFF" stroke="none" d="
M 97.7 42.4
Q 93.75 37.05 87.35 36.35 80.95 35.65 75.9 39.95 70.85 44.3 70.1 51.15 69.35 58 73.3 63.3 77.3 68.65 83.65 69.35 90.05 70.05 95.1 65.75 100.15 61.4 100.9 54.55 101.7 47.75 97.7 42.4 Z"/>
</g>

<g id="Layer1_2_MEMBER_0_MEMBER_1_FILL">
<path fill="#2F2F2F" stroke="none" d="
M 90.7 48.45
Q 89 46.6 86.5 46.5 84 46.3 82.1 47.95 80.2 49.6 80.05 52.1 79.85 54.55 81.55 56.45 83.2 58.3 85.7 58.45 88.2 58.6 90.1 56.95 92 55.3 92.2 52.8 92.35 50.3 90.7 48.45 Z"/>
</g>

<g id="Layer1_2_MEMBER_1_MEMBER_0_FILL">
<path fill="#FFFFFF" stroke="none" d="
M 97.7 42.4
Q 93.75 37.05 87.35 36.35 80.95 35.65 75.9 39.95 70.85 44.3 70.1 51.15 69.35 58 73.3 63.3 77.3 68.65 83.65 69.35 90.05 70.05 95.1 65.75 100.15 61.4 100.9 54.55 101.7 47.75 97.7 42.4 Z"/>
</g>

<g id="Layer1_2_MEMBER_1_MEMBER_1_FILL">
<path fill="#2F2F2F" stroke="none" d="
M 90.7 48.45
Q 89 46.6 86.5 46.5 84 46.3 82.1 47.95 80.2 49.6 80.05 52.1 79.85 54.55 81.55 56.45 83.2 58.3 85.7 58.45 88.2 58.6 90.1 56.95 92 55.3 92.2 52.8 92.35 50.3 90.7 48.45 Z"/>
</g>

<path id="Layer0_0_1_STROKES" stroke="#2F2F2F" stroke-width="3" stroke-linejoin="round" stroke-linecap="round" fill="none" d="
M 30 51.85
L 42 51.85"/>

<path id="Layer0_1_1_STROKES" stroke="#2F2F2F" stroke-width="3" stroke-linejoin="round" stroke-linecap="round" fill="none" d="
M 47.05 17.5
Q 53.05 17.05 56.95 21.9
M 24.5 17.45
Q 18.5 17 14.55 21.9"/>
</defs>

<g id="Layer_1">
<g transform="matrix( 0.5625, 0, 0, 0.5625, 0,0) ">
<use xlink:href="#Layer1_0_FILL"/>
</g>

<g transform="matrix( 1, 0, 0, 1, 42.8,1.5) ">
<use xlink:href="#Layer1_1_MEMBER_0_FILL"/>
</g>

<g transform="matrix( 1, 0, 0, 1, 2.75,1.5) ">
<use xlink:href="#Layer1_1_MEMBER_1_FILL"/>
</g>

<g transform="matrix( 0.562469482421875, 0, 0, 0.562469482421875, -25.1,3) ">
<use xlink:href="#Layer1_2_MEMBER_0_MEMBER_0_FILL"/>
</g>

<g transform="matrix( 0.6421356201171875, 0, 0, 0.6421356201171875, -32.3,-1.15) ">
<use xlink:href="#Layer1_2_MEMBER_0_MEMBER_1_FILL"/>
</g>

<g transform="matrix( -0.562469482421875, 0, 0, 0.562469482421875, 97.1,3) ">
<use xlink:href="#Layer1_2_MEMBER_1_MEMBER_0_FILL"/>
</g>

<g transform="matrix( -0.6421356201171875, 0, 0, 0.6421356201171875, 104.3,-1.15) ">
<use xlink:href="#Layer1_2_MEMBER_1_MEMBER_1_FILL"/>
</g>
</g>

<g id="Camada_2">
<g transform="matrix( 1, 0, 0, 1, 0,0) ">
<use xlink:href="#Layer0_0_1_STROKES"/>
</g>

<g transform="matrix( 1, 0, 0, 1, 0.25,0) ">
<use xlink:href="#Layer0_1_1_STROKES"/>
</g>
</g>
</svg>
